X: 341
M: C
L: 1/8
K: D
V: 1
f |\
f/f/f (.d.f) d/d/d df | E/E/E (TB>A) BEBe |\
f/f/f (.d.f) defg | aAAG TF2D :|
|: z |\
V: 2 clef=bass middle=d
z |\
d2d2 d2d2 | e2e2 e2e2 |\
d2d2 d2d2 | A2A2 D2D :|
|: z |\
d2d2 d2d2 | g2f2 e2e2 |\
d2d2 d2d2 | d2g2 a2d :|

